X: 23
T: Un franc archier a la guerre s'en va
N: Derived from Com3043-Un_franc_archier_a_la_guerre_sen_va.krn
C: Loyset Comp\`ere
%%abc-version 2.0
%%abcx-abcm2ps-target-version 5.9.1 (29 Sep 2008)
%%abc-creator hum2abc beta
%%abcx-conversion-date 2019/02/16 20:28:09
%%abc-edited-by Jesse Rodin
%%abc-edited-by Megan K. Eagen 2013/11/30
%%abcx-initial-encoding-date 2013/11/30/
%%humdrum-veritas 2662792692
%%humdrum-veritas-data 409373601
%%linebreak <none>
%%barnumbers 0
L: 1/4
M: 2/1
Q: 1/2=120
%%staves [1 2 3 4]
V: 1 clef=treble
V: 2 clef=treble-8
V: 3 clef=treble-8
V: 4 clef=bass
K: F
[V:1] z8 | 
[V:2] z8 | 
[V:3] z4G4 | 
[V:4] G,,6A,,2 | 
[V:1] z8 | 
[V:2] z8 | 
[V:3] F4E4 | 
[V:4] B,,4C,4 | 
[V:1] z8 | 
[V:2] z8 | 
[V:3] D4A4 | 
[V:4] D,4E,2F,2 | 
[V:1] z8 | 
[V:2] z8 | 
[V:3] B4A4 | 
[V:4] D,2G,2D,2C,D, | 
[V:1] z8 | 
[V:2] z8 | 
[V:3] G2G4^F2 | 
[V:4] _E,D,C,B,,A,,4 | 
[V:1] z4G4 | 
[V:2] z8 | 
[V:3] G4B4 | 
[V:4] G,,8 | 
[V:1] F4E4 | 
[V:2] z4c4 | 
[V:3] A2F2G3A | 
[V:4] D,4C,4 | 
[V:1] D4A4 | 
[V:2] B4A4 | 
[V:3] B3cd4 | 
[V:4] G,4D,4 | 
[V:1] B4A4 | 
[V:2] G4d4 | 
[V:3] D2E2D2F2 | 
[V:4] G,,2G,2F,2D,F, | 
[V:1] G2G4F2 | 
[V:2] _e4d4 | 
[V:3] G2A2B2A2- | 
[V:4] C,4B,,2C,D, | 
[V:1] G4z4 | 
[V:2] c2c4=B2 | 
[V:3] AGG4F2 | 
[V:4] _E,2C,2D,4 | 
[V:1] z8 | 
[V:2] c8 | 
[V:3] G4z2G2 | 
[V:4] C,8 | 
[V:1] z8 | 
[V:2] z8 | 
[V:3] A4B4 | 
[V:4] z4G,4 | 
[V:1] z4G4 | 
[V:2] z8 | 
[V:3] A4z2G2 | 
[V:4] A,4B,4 | 
[V:1] A4B4 | 
[V:2] z8 | 
[V:3] c3BG2G2 | 
[V:4] A,4z2G,2 | 
[V:1] A4z2G2 | 
[V:2] z8 | 
[V:3] F2F2G2G2 | 
[V:4] C3B,/A,/G,2G,2 | 
[V:1] c3B/A/G2G2 | 
[V:2] z4c4 | 
[V:3] A4z2G2 | 
[V:4] F,2F,2E,2E,2 | 
[V:1] F2F2G2G2 | 
[V:2] d4_e4 | 
[V:3] A2B2c4 | 
[V:4] D,4C,4 | 
[V:1] A8- | 
[V:2] d4z2c2 | 
[V:3] F3E/D/E2F2- | 
[V:4] z2D,2A,,4 | 
[V:1] A8 | 
[V:2] f3_e/d/c2c2 | 
[V:3] FGA3Bc2 | 
[V:4] D,3C,/B,,/A,,2A,,2 | 
[V:1] z8 | 
[V:2] B2B2c2c2 | 
[V:3] BGG3^F^FE | 
[V:4] G,,2B,,2A,,4 | 
[V:1] z8 | 
[V:2] d8- | 
[V:3] G2B4AG | 
[V:4] G,,4z4 | 
[V:1] z8 | 
[V:2] d8 | 
[V:3] B2G2D4 | 
[V:4] G,4F,4 | 
[V:1] z8 | 
[V:2] z8 | 
[V:3] z2G2F4 | 
[V:4] E,4D,2D,2- | 
[V:1] G4F4 | 
[V:2] z8 | 
[V:3] E4D4 | 
[V:4] D,2C,2D,4 | 
[V:1] E4D4 | 
[V:2] c4B4 | 
[V:3] z4z2G2 | 
[V:4] A,,4D,2G,2- | 
[V:1] z8 | 
[V:2] A4G4 | 
[V:3] D4d4- | 
[V:4] G,2F,2G,4 | 
[V:1] z2A2A3G | 
[V:2] z8 | 
[V:3] d2d2d2d2 | 
[V:4] D,8- | 
[V:1] F3ED4 | 
[V:2] z2d2d3c | 
[V:3] d4B4- | 
[V:4] D,4G,4- | 
[V:1] E4D2G2- | 
[V:2] B3AG4 | 
[V:3] B2c2d4- | 
[V:4] G,2A,2B,2G,2 | 
[V:1] G2^F2G4 | 
[V:2] A4G2c2- | 
[V:3] d4B2_e2- | 
[V:4] D,4_E,2C,2 | 
[V:1] z4G4 | 
[V:2] c2B2c4 | 
[V:3] e2d2_e2c2- | 
[V:4] G,4C,4 | 
[V:1] A4B4 | 
[V:2] z8 | 
[V:3] c2BAG4 | 
[V:4] F,4_E,2G,2 | 
[V:1] A4z4 | 
[V:2] z8 | 
[V:3] A4B2G2- | 
[V:4] F,2D,2G,4 | 
[V:1] z4z2G2 | 
[V:2] c4d4 | 
[V:3] G2^F2G4 | 
[V:4] A,4B,4 | 
[V:1] A2A2B2B2 | 
[V:2] _e4d4 | 
[V:3] z2c2d4 | 
[V:4] A,4D,4 | 
[V:1] c4z4 | 
[V:2] z2c2d2d2 | 
[V:3] e4d4 | 
[V:4] C,2E,2F,3A, | 
[V:1] B4A2c2 | 
[V:2] _e2_e2f4 | 
[V:3] z2G2A2A2 | 
[V:4] G,2G,2F,3E, | 
[V:1] BAGFE2A2- | 
[V:2] z8 | 
[V:3] B2B2c4 | 
[V:4] D,4C,2F,2- | 
[V:1] AGG4^F2 | 
[V:2] z8 | 
[V:3] d2B2A3B | 
[V:4] F,2G,2D,2F,2 | 
[V:1] G3AB2A2 | 
[V:2] _e4d2f2 | 
[V:3] c3AB2d2 | 
[V:4] _E,2C,2G,2D,2 | 
[V:1] G2c3BA2 | 
[V:2] _edcBA2d2- | 
[V:3] G2A2F2D2 | 
[V:4] _E,2F,G,A,2F,2 | 
[V:1] B2G2A3G/F/ | 
[V:2] dcc4=B2 | 
[V:3] z2G4F2 | 
[V:4] G,2E,2D,4 | 
[V:1] E3FG2A2- | 
[V:2] c8 | 
[V:3] G6F2 | 
[V:4] C,3D,E,2F,2- | 
[V:1] A2B2c2A2- | 
[V:2] d4_e2f2 | 
[V:3] A2G4AB | 
[V:4] F,2G,2C,2F,G, | 
[V:1] A2d4c2 | 
[V:2] _e2d3_ef2 | 
[V:3] c2d2B2c2 | 
[V:4] A,2D,2G,2A,2 | 
[V:1] B2AGB2A2- | 
[V:2] g2a2g2f2 | 
[V:3] d8 | 
[V:4] G,2F,E,G,2D,2 | 
[V:1] AGG4^F2 | 
[V:2] _e2c2d4 | 
[V:3] G4A4 | 
[V:4] _E,4D,4 | 
[V:1] G8 |]  
[V:2] d8 |]  
[V:3] G8 |]  
[V:4] G,,8 |]  



